X:360
T: MAEDCHEN MIT DEN BLAUEN AUGEN
N: B0427
O: Europa, Mitteleuropa, Deutschland, Hessen, Darmstadt
R: Liebes - Lied, Liebes - Lust
M: 2/4
L: 1/16
K: G
 | G2D2B2G2 | E2E2E2E2
c4F4 | G4z4
G2D2B2G2 | E2E2E2E2
c4F4 | G4z4
d2d2dedc | c2B2B2B2
d2B2edcB | B2A2A2A2
c4F4 | G2B2d2B2 | c4F4 | G4z4

